src/home/img/icon-enterprise.svg

<svg height="78" viewBox="0 0 83 78" width="83" xmlns="http://www.w3.org/2000/svg" xmlns:xlink="http://www.w3.org/1999/xlink"><linearGradient id="a" x1="10.062%" x2="10.062%" y1="0%" y2="98.189%"><stop offset="0" stop-color="#664ba7"/><stop offset="1" stop-color="#512da8"/></linearGradient><filter id="b" height="107.4%" width="107.4%" x="-3.7%" y="-3.7%"><feGaussianBlur in="SourceGraphic" stdDeviation=".65"/></filter><linearGradient id="c" x1="0%" x2="0%" y1="0%" y2="100%"><stop offset="0" stop-color="#fff"/><stop offset="1" stop-color="#dfd6ef"/></linearGradient><filter id="d" height="107.1%" width="105.9%" x="-3%" y="-3.5%"><feGaussianBlur in="SourceGraphic" stdDeviation=".65"/></filter><mask id="e" fill="#fff"><path d="m.5 13.84c0-7.367 5.973-13.34 13.34-13.34h48.32c7.367 0 13.34 5.973 13.34 13.34v48.32c0 7.367-5.973 13.34-13.34 13.34h-48.32c-7.367 0-13.34-5.973-13.34-13.34z" fill="#fff" fill-rule="evenodd"/></mask><g fill="none" fill-rule="evenodd" transform="translate(1 1)"><path d="m.5 13.84c0-7.367 5.973-13.34 13.34-13.34h48.32c7.367 0 13.34 5.973 13.34 13.34v48.32c0 7.367-5.973 13.34-13.34 13.34h-48.32c-7.367 0-13.34-5.973-13.34-13.34z" mask="url(#e)"/><path d="m.5 13.84c0-7.367 5.973-13.34 13.34-13.34h48.32c7.367 0 13.34 5.973 13.34 13.34v48.32c0 7.367-5.973 13.34-13.34 13.34h-48.32c-7.367 0-13.34-5.973-13.34-13.34z"/><path d="m.5 13.84c0-7.367 5.973-13.34 13.34-13.34h48.32c7.367 0 13.34 5.973 13.34 13.34v48.32c0 7.367-5.973 13.34-13.34 13.34h-48.32c-7.367 0-13.34-5.973-13.34-13.34z"/><g fill-rule="nonzero"><path d="m.5 13.84c0-7.367 5.973-13.34 13.34-13.34h48.32c7.367 0 13.34 5.973 13.34 13.34v48.32c0 7.367-5.973 13.34-13.34 13.34h-48.32c-7.367 0-13.34-5.973-13.34-13.34z" fill="url(#a)" filter="url(#b)" stroke="#fff" stroke-opacity=".01" stroke-width="1.68"/><path d="m.5 13.84c0-7.367 5.973-13.34 13.34-13.34h48.32c7.367 0 13.34 5.973 13.34 13.34v48.32c0 7.367-5.973 13.34-13.34 13.34h-48.32c-7.367 0-13.34-5.973-13.34-13.34z" fill="url(#a)" stroke="#fff" stroke-opacity=".01" stroke-width="1.68"/><g fill="url(#c)" transform="translate(15 11)"><path d="m63.4032787 20.625h-11.4688525v-18.046875c0-1.42385912-1.1625917-2.578125-2.5967213-2.578125h-15.5803279c-1.4341295 0-2.5967213 1.15426588-2.5967213 2.578125v7.734375h-6.9245901v-8.59375c0-.94923941-.7750612-1.71875-1.7311476-1.71875h-1.7311475c-.9560864 0-1.7311475.76951059-1.7311475 1.71875v8.59375h-6.9245902v-8.59375c0-.94923941-.7750612-1.71875-1.7311476-1.71875h-1.7311475c-.95608638 0-1.73114754.76951059-1.73114754 1.71875v8.59375h-4.32786885c-1.43412958 0-2.59672131 1.1542659-2.59672131 2.578125v38.671875c0 1.8984788 1.55012231 3.4375 3.46229508 3.4375h59.07540982c1.9121728 0 3.4622951-1.5390212 3.4622951-3.4375v-28.359375c0-1.4238591-1.1625917-2.578125-2.5967213-2.578125zm-50.4196721 22.377451c0 .6700513-.5449649 1.2132353-1.2172132 1.2132353h-4.05737701c-.67224824 0-1.21721311-.543184-1.21721311-1.2132353v-4.0441177c0-.6700513.54496487-1.2132353 1.21721311-1.2132353h4.05737701c.6722483 0 1.2172132.543184 1.2172132 1.2132353zm0-9.7058824c0 .6700514-.5449649 1.2132353-1.2172132 1.2132353h-4.05737701c-.67224824 0-1.21721311-.5431839-1.21721311-1.2132353v-4.0441176c0-.6700514.54496487-1.2132353 1.21721311-1.2132353h4.05737701c.6722483 0 1.2172132.5431839 1.2172132 1.2132353zm0-10.7843137c0 .6700514-.5449649 1.2132353-1.2172132 1.2132353h-4.05737701c-.67224824 0-1.21721311-.5431839-1.21721311-1.2132353v-4.0441176c0-.6700514.54496487-1.2132353 1.21721311-1.2132353h4.05737701c.6722483 0 1.2172132.5431839 1.2172132 1.2132353zm14.0655737 20.4901961c0 .6700513-.5449648 1.2132353-1.2172131 1.2132353h-4.057377c-.6722483 0-1.2172132-.543184-1.2172132-1.2132353v-4.0441177c0-.6700513.5449649-1.2132353 1.2172132-1.2132353h4.057377c.6722483 0 1.2172131.543184 1.2172131 1.2132353zm0-9.7058824c0 .6700514-.5449648 1.2132353-1.2172131 1.2132353h-4.057377c-.6722483 0-1.2172132-.5431839-1.2172132-1.2132353v-4.0441176c0-.6700514.5449649-1.2132353 1.2172132-1.2132353h4.057377c.6722483 0 1.2172131.5431839 1.2172131 1.2132353zm0-10.7843137c0 .6700514-.5449648 1.2132353-1.2172131 1.2132353h-4.057377c-.6722483 0-1.2172132-.5431839-1.2172132-1.2132353v-4.0441176c0-.6700514.5449649-1.2132353 1.2172132-1.2132353h4.057377c.6722483 0 1.2172131.5431839 1.2172131 1.2132353zm17.3114754 10.7843137c0 .6700514-.5449648 1.2132353-1.2172131 1.2132353h-4.057377c-.6722483 0-1.2172131-.5431839-1.2172131-1.2132353v-4.0441176c0-.6700514.5449648-1.2132353 1.2172131-1.2132353h4.057377c.6722483 0 1.2172131.5431839 1.2172131 1.2132353zm0-10.7843137c0 .6700514-.5449648 1.2132353-1.2172131 1.2132353h-4.057377c-.6722483 0-1.2172131-.5431839-1.2172131-1.2132353v-4.0441176c0-.6700514.5449648-1.2132353 1.2172131-1.2132353h4.057377c.6722483 0 1.2172131.5431839 1.2172131 1.2132353zm0-10.7843137c0 .6700513-.5449648 1.2132353-1.2172131 1.2132353h-4.057377c-.6722483 0-1.2172131-.543184-1.2172131-1.2132353v-4.04411767c0-.67005135.5449648-1.21323529 1.2172131-1.21323529h4.057377c.6722483 0 1.2172131.54318394 1.2172131 1.21323529z" filter="url(#d)"/><path d="m63.4032787 20.625h-11.4688525v-18.046875c0-1.42385912-1.1625917-2.578125-2.5967213-2.578125h-15.5803279c-1.4341295 0-2.5967213 1.15426588-2.5967213 2.578125v7.734375h-6.9245901v-8.59375c0-.94923941-.7750612-1.71875-1.7311476-1.71875h-1.7311475c-.9560864 0-1.7311475.76951059-1.7311475 1.71875v8.59375h-6.9245902v-8.59375c0-.94923941-.7750612-1.71875-1.7311476-1.71875h-1.7311475c-.95608638 0-1.73114754.76951059-1.73114754 1.71875v8.59375h-4.32786885c-1.43412958 0-2.59672131 1.1542659-2.59672131 2.578125v38.671875c0 1.8984788 1.55012231 3.4375 3.46229508 3.4375h59.07540982c1.9121728 0 3.4622951-1.5390212 3.4622951-3.4375v-28.359375c0-1.4238591-1.1625917-2.578125-2.5967213-2.578125zm-50.4196721 22.377451c0 .6700513-.5449649 1.2132353-1.2172132 1.2132353h-4.05737701c-.67224824 0-1.21721311-.543184-1.21721311-1.2132353v-4.0441177c0-.6700513.54496487-1.2132353 1.21721311-1.2132353h4.05737701c.6722483 0 1.2172132.543184 1.2172132 1.2132353zm0-9.7058824c0 .6700514-.5449649 1.2132353-1.2172132 1.2132353h-4.05737701c-.67224824 0-1.21721311-.5431839-1.21721311-1.2132353v-4.0441176c0-.6700514.54496487-1.2132353 1.21721311-1.2132353h4.05737701c.6722483 0 1.2172132.5431839 1.2172132 1.2132353zm0-10.7843137c0 .6700514-.5449649 1.2132353-1.2172132 1.2132353h-4.05737701c-.67224824 0-1.21721311-.5431839-1.21721311-1.2132353v-4.0441176c0-.6700514.54496487-1.2132353 1.21721311-1.2132353h4.05737701c.6722483 0 1.2172132.5431839 1.2172132 1.2132353zm14.0655737 20.4901961c0 .6700513-.5449648 1.2132353-1.2172131 1.2132353h-4.057377c-.6722483 0-1.2172132-.543184-1.2172132-1.2132353v-4.0441177c0-.6700513.5449649-1.2132353 1.2172132-1.2132353h4.057377c.6722483 0 1.2172131.543184 1.2172131 1.2132353zm0-9.7058824c0 .6700514-.5449648 1.2132353-1.2172131 1.2132353h-4.057377c-.6722483 0-1.2172132-.5431839-1.2172132-1.2132353v-4.0441176c0-.6700514.5449649-1.2132353 1.2172132-1.2132353h4.057377c.6722483 0 1.2172131.5431839 1.2172131 1.2132353zm0-10.7843137c0 .6700514-.5449648 1.2132353-1.2172131 1.2132353h-4.057377c-.6722483 0-1.2172132-.5431839-1.2172132-1.2132353v-4.0441176c0-.6700514.5449649-1.2132353 1.2172132-1.2132353h4.057377c.6722483 0 1.2172131.5431839 1.2172131 1.2132353zm17.3114754 10.7843137c0 .6700514-.5449648 1.2132353-1.2172131 1.2132353h-4.057377c-.6722483 0-1.2172131-.5431839-1.2172131-1.2132353v-4.0441176c0-.6700514.5449648-1.2132353 1.2172131-1.2132353h4.057377c.6722483 0 1.2172131.5431839 1.2172131 1.2132353zm0-10.7843137c0 .6700514-.5449648 1.2132353-1.2172131 1.2132353h-4.057377c-.6722483 0-1.2172131-.5431839-1.2172131-1.2132353v-4.0441176c0-.6700514.5449648-1.2132353 1.2172131-1.2132353h4.057377c.6722483 0 1.2172131.5431839 1.2172131 1.2132353zm0-10.7843137c0 .6700513-.5449648 1.2132353-1.2172131 1.2132353h-4.057377c-.6722483 0-1.2172131-.543184-1.2172131-1.2132353v-4.04411767c0-.67005135.5449648-1.21323529 1.2172131-1.21323529h4.057377c.6722483 0 1.2172131.54318394 1.2172131 1.21323529z"/></g></g></g></svg>

<svg xmlns="http://www.w3.org/2000/svg" xmlns:xlink="http://www.w3.org/1999/xlink" width="83" height="78" viewBox="0 0 83 78">
  <defs>
    <path id="icon-enterprise-a" d="M0.5,13.84 C0.5,6.473 6.473,0.5 13.84,0.5 L62.16,0.5 C69.527,0.5 75.5,6.473 75.5,13.84 L75.5,62.16 C75.5,69.527 69.527,75.5 62.16,75.5 L13.84,75.5 C6.473,75.5 0.5,69.527 0.5,62.16 L0.5,13.84 Z"/>
    <linearGradient id="icon-enterprise-c" x1="10.062%" x2="10.062%" y1="0%" y2="98.189%">
      <stop offset="0%" stop-color="#664BA7"/>
      <stop offset="100%" stop-color="#512DA8"/>
    </linearGradient>
    <filter id="icon-enterprise-d" width="107.4%" height="107.4%" x="-3.7%" y="-3.7%" filterUnits="objectBoundingBox">
      <feGaussianBlur in="SourceGraphic" stdDeviation=".65"/>
    </filter>
    <linearGradient id="icon-enterprise-e" x1="0%" x2="0%" y1="0%" y2="100%">
      <stop offset="0%" stop-color="#FFF"/>
      <stop offset="100%" stop-color="#DFD6EF"/>
    </linearGradient>
    <filter id="icon-enterprise-f" width="105.9%" height="107.1%" x="-3%" y="-3.5%" filterUnits="objectBoundingBox">
      <feGaussianBlur in="SourceGraphic" stdDeviation=".65"/>
    </filter>
  </defs>
  <g fill="none" fill-rule="evenodd" transform="translate(1 1)">
    <mask id="icon-enterprise-b" fill="#fff">
      <use xlink:href="#icon-enterprise-a"/>
    </mask>
    <path d="M0.5,13.84 C0.5,6.473 6.473,0.5 13.84,0.5 L62.16,0.5 C69.527,0.5 75.5,6.473 75.5,13.84 L75.5,62.16 C75.5,69.527 69.527,75.5 62.16,75.5 L13.84,75.5 C6.473,75.5 0.5,69.527 0.5,62.16 L0.5,13.84 Z" mask="url(#icon-enterprise-b)"/>
    <path d="M0.5,13.84 C0.5,6.473 6.473,0.5 13.84,0.5 L62.16,0.5 C69.527,0.5 75.5,6.473 75.5,13.84 L75.5,62.16 C75.5,69.527 69.527,75.5 62.16,75.5 L13.84,75.5 C6.473,75.5 0.5,69.527 0.5,62.16 L0.5,13.84 Z"/>
    <path d="M0.5,13.84 C0.5,6.473 6.473,0.5 13.84,0.5 L62.16,0.5 C69.527,0.5 75.5,6.473 75.5,13.84 L75.5,62.16 C75.5,69.527 69.527,75.5 62.16,75.5 L13.84,75.5 C6.473,75.5 0.5,69.527 0.5,62.16 L0.5,13.84 Z"/>
    <path fill="url(#icon-enterprise-c)" fill-rule="nonzero" stroke="#FFF" stroke-opacity=".01" stroke-width="1.68" d="M0.5,13.84 C0.5,6.473 6.473,0.5 13.84,0.5 L62.16,0.5 C69.527,0.5 75.5,6.473 75.5,13.84 L75.5,62.16 C75.5,69.527 69.527,75.5 62.16,75.5 L13.84,75.5 C6.473,75.5 0.5,69.527 0.5,62.16 L0.5,13.84 Z" filter="url(#icon-enterprise-d)"/>
    <path fill="url(#icon-enterprise-c)" fill-rule="nonzero" stroke="#FFF" stroke-opacity=".01" stroke-width="1.68" d="M0.5,13.84 C0.5,6.473 6.473,0.5 13.84,0.5 L62.16,0.5 C69.527,0.5 75.5,6.473 75.5,13.84 L75.5,62.16 C75.5,69.527 69.527,75.5 62.16,75.5 L13.84,75.5 C6.473,75.5 0.5,69.527 0.5,62.16 L0.5,13.84 Z"/>
    <g fill="url(#icon-enterprise-e)" fill-rule="nonzero" transform="translate(15 11)">
      <path d="M63.4032787,20.625 L51.9344262,20.625 L51.9344262,2.578125 C51.9344262,1.15426588 50.7718345,0 49.3377049,0 L33.757377,0 C32.3232475,0 31.1606557,1.15426588 31.1606557,2.578125 L31.1606557,10.3125 L24.2360656,10.3125 L24.2360656,1.71875 C24.2360656,0.769510586 23.4610044,0 22.504918,0 L20.7737705,0 C19.8176841,0 19.042623,0.769510586 19.042623,1.71875 L19.042623,10.3125 L12.1180328,10.3125 L12.1180328,1.71875 C12.1180328,0.769510586 11.3429716,0 10.3868852,0 L8.6557377,0 C7.69965132,0 6.92459016,0.769510586 6.92459016,1.71875 L6.92459016,10.3125 L2.59672131,10.3125 C1.16259173,10.3125 0,11.4667659 0,12.890625 L0,51.5625 C0,53.4609788 1.55012231,55 3.46229508,55 L62.5377049,55 C64.4498777,55 66,53.4609788 66,51.5625 L66,23.203125 C66,21.7792659 64.8374083,20.625 63.4032787,20.625 Z M12.9836066,43.002451 C12.9836066,43.6725023 12.4386417,44.2156863 11.7663934,44.2156863 L7.70901639,44.2156863 C7.03676815,44.2156863 6.49180328,43.6725023 6.49180328,43.002451 L6.49180328,38.9583333 C6.49180328,38.288282 7.03676815,37.745098 7.70901639,37.745098 L11.7663934,37.745098 C12.4386417,37.745098 12.9836066,38.288282 12.9836066,38.9583333 L12.9836066,43.002451 Z M12.9836066,33.2965686 C12.9836066,33.96662 12.4386417,34.5098039 11.7663934,34.5098039 L7.70901639,34.5098039 C7.03676815,34.5098039 6.49180328,33.96662 6.49180328,33.2965686 L6.49180328,29.252451 C6.49180328,28.5823996 7.03676815,28.0392157 7.70901639,28.0392157 L11.7663934,28.0392157 C12.4386417,28.0392157 12.9836066,28.5823996 12.9836066,29.252451 L12.9836066,33.2965686 Z M12.9836066,22.5122549 C12.9836066,23.1823063 12.4386417,23.7254902 11.7663934,23.7254902 L7.70901639,23.7254902 C7.03676815,23.7254902 6.49180328,23.1823063 6.49180328,22.5122549 L6.49180328,18.4681373 C6.49180328,17.7980859 7.03676815,17.254902 7.70901639,17.254902 L11.7663934,17.254902 C12.4386417,17.254902 12.9836066,17.7980859 12.9836066,18.4681373 L12.9836066,22.5122549 Z M27.0491803,43.002451 C27.0491803,43.6725023 26.5042155,44.2156863 25.8319672,44.2156863 L21.7745902,44.2156863 C21.1023419,44.2156863 20.557377,43.6725023 20.557377,43.002451 L20.557377,38.9583333 C20.557377,38.288282 21.1023419,37.745098 21.7745902,37.745098 L25.8319672,37.745098 C26.5042155,37.745098 27.0491803,38.288282 27.0491803,38.9583333 L27.0491803,43.002451 Z M27.0491803,33.2965686 C27.0491803,33.96662 26.5042155,34.5098039 25.8319672,34.5098039 L21.7745902,34.5098039 C21.1023419,34.5098039 20.557377,33.96662 20.557377,33.2965686 L20.557377,29.252451 C20.557377,28.5823996 21.1023419,28.0392157 21.7745902,28.0392157 L25.8319672,28.0392157 C26.5042155,28.0392157 27.0491803,28.5823996 27.0491803,29.252451 L27.0491803,33.2965686 Z M27.0491803,22.5122549 C27.0491803,23.1823063 26.5042155,23.7254902 25.8319672,23.7254902 L21.7745902,23.7254902 C21.1023419,23.7254902 20.557377,23.1823063 20.557377,22.5122549 L20.557377,18.4681373 C20.557377,17.7980859 21.1023419,17.254902 21.7745902,17.254902 L25.8319672,17.254902 C26.5042155,17.254902 27.0491803,17.7980859 27.0491803,18.4681373 L27.0491803,22.5122549 Z M44.3606557,33.2965686 C44.3606557,33.96662 43.8156909,34.5098039 43.1434426,34.5098039 L39.0860656,34.5098039 C38.4138173,34.5098039 37.8688525,33.96662 37.8688525,33.2965686 L37.8688525,29.252451 C37.8688525,28.5823996 38.4138173,28.0392157 39.0860656,28.0392157 L43.1434426,28.0392157 C43.8156909,28.0392157 44.3606557,28.5823996 44.3606557,29.252451 L44.3606557,33.2965686 Z M44.3606557,22.5122549 C44.3606557,23.1823063 43.8156909,23.7254902 43.1434426,23.7254902 L39.0860656,23.7254902 C38.4138173,23.7254902 37.8688525,23.1823063 37.8688525,22.5122549 L37.8688525,18.4681373 C37.8688525,17.7980859 38.4138173,17.254902 39.0860656,17.254902 L43.1434426,17.254902 C43.8156909,17.254902 44.3606557,17.7980859 44.3606557,18.4681373 L44.3606557,22.5122549 Z M44.3606557,11.7279412 C44.3606557,12.3979925 43.8156909,12.9411765 43.1434426,12.9411765 L39.0860656,12.9411765 C38.4138173,12.9411765 37.8688525,12.3979925 37.8688525,11.7279412 L37.8688525,7.68382353 C37.8688525,7.01377218 38.4138173,6.47058824 39.0860656,6.47058824 L43.1434426,6.47058824 C43.8156909,6.47058824 44.3606557,7.01377218 44.3606557,7.68382353 L44.3606557,11.7279412 Z" filter="url(#icon-enterprise-f)"/>
      <path d="M63.4032787,20.625 L51.9344262,20.625 L51.9344262,2.578125 C51.9344262,1.15426588 50.7718345,0 49.3377049,0 L33.757377,0 C32.3232475,0 31.1606557,1.15426588 31.1606557,2.578125 L31.1606557,10.3125 L24.2360656,10.3125 L24.2360656,1.71875 C24.2360656,0.769510586 23.4610044,0 22.504918,0 L20.7737705,0 C19.8176841,0 19.042623,0.769510586 19.042623,1.71875 L19.042623,10.3125 L12.1180328,10.3125 L12.1180328,1.71875 C12.1180328,0.769510586 11.3429716,0 10.3868852,0 L8.6557377,0 C7.69965132,0 6.92459016,0.769510586 6.92459016,1.71875 L6.92459016,10.3125 L2.59672131,10.3125 C1.16259173,10.3125 0,11.4667659 0,12.890625 L0,51.5625 C0,53.4609788 1.55012231,55 3.46229508,55 L62.5377049,55 C64.4498777,55 66,53.4609788 66,51.5625 L66,23.203125 C66,21.7792659 64.8374083,20.625 63.4032787,20.625 Z M12.9836066,43.002451 C12.9836066,43.6725023 12.4386417,44.2156863 11.7663934,44.2156863 L7.70901639,44.2156863 C7.03676815,44.2156863 6.49180328,43.6725023 6.49180328,43.002451 L6.49180328,38.9583333 C6.49180328,38.288282 7.03676815,37.745098 7.70901639,37.745098 L11.7663934,37.745098 C12.4386417,37.745098 12.9836066,38.288282 12.9836066,38.9583333 L12.9836066,43.002451 Z M12.9836066,33.2965686 C12.9836066,33.96662 12.4386417,34.5098039 11.7663934,34.5098039 L7.70901639,34.5098039 C7.03676815,34.5098039 6.49180328,33.96662 6.49180328,33.2965686 L6.49180328,29.252451 C6.49180328,28.5823996 7.03676815,28.0392157 7.70901639,28.0392157 L11.7663934,28.0392157 C12.4386417,28.0392157 12.9836066,28.5823996 12.9836066,29.252451 L12.9836066,33.2965686 Z M12.9836066,22.5122549 C12.9836066,23.1823063 12.4386417,23.7254902 11.7663934,23.7254902 L7.70901639,23.7254902 C7.03676815,23.7254902 6.49180328,23.1823063 6.49180328,22.5122549 L6.49180328,18.4681373 C6.49180328,17.7980859 7.03676815,17.254902 7.70901639,17.254902 L11.7663934,17.254902 C12.4386417,17.254902 12.9836066,17.7980859 12.9836066,18.4681373 L12.9836066,22.5122549 Z M27.0491803,43.002451 C27.0491803,43.6725023 26.5042155,44.2156863 25.8319672,44.2156863 L21.7745902,44.2156863 C21.1023419,44.2156863 20.557377,43.6725023 20.557377,43.002451 L20.557377,38.9583333 C20.557377,38.288282 21.1023419,37.745098 21.7745902,37.745098 L25.8319672,37.745098 C26.5042155,37.745098 27.0491803,38.288282 27.0491803,38.9583333 L27.0491803,43.002451 Z M27.0491803,33.2965686 C27.0491803,33.96662 26.5042155,34.5098039 25.8319672,34.5098039 L21.7745902,34.5098039 C21.1023419,34.5098039 20.557377,33.96662 20.557377,33.2965686 L20.557377,29.252451 C20.557377,28.5823996 21.1023419,28.0392157 21.7745902,28.0392157 L25.8319672,28.0392157 C26.5042155,28.0392157 27.0491803,28.5823996 27.0491803,29.252451 L27.0491803,33.2965686 Z M27.0491803,22.5122549 C27.0491803,23.1823063 26.5042155,23.7254902 25.8319672,23.7254902 L21.7745902,23.7254902 C21.1023419,23.7254902 20.557377,23.1823063 20.557377,22.5122549 L20.557377,18.4681373 C20.557377,17.7980859 21.1023419,17.254902 21.7745902,17.254902 L25.8319672,17.254902 C26.5042155,17.254902 27.0491803,17.7980859 27.0491803,18.4681373 L27.0491803,22.5122549 Z M44.3606557,33.2965686 C44.3606557,33.96662 43.8156909,34.5098039 43.1434426,34.5098039 L39.0860656,34.5098039 C38.4138173,34.5098039 37.8688525,33.96662 37.8688525,33.2965686 L37.8688525,29.252451 C37.8688525,28.5823996 38.4138173,28.0392157 39.0860656,28.0392157 L43.1434426,28.0392157 C43.8156909,28.0392157 44.3606557,28.5823996 44.3606557,29.252451 L44.3606557,33.2965686 Z M44.3606557,22.5122549 C44.3606557,23.1823063 43.8156909,23.7254902 43.1434426,23.7254902 L39.0860656,23.7254902 C38.4138173,23.7254902 37.8688525,23.1823063 37.8688525,22.5122549 L37.8688525,18.4681373 C37.8688525,17.7980859 38.4138173,17.254902 39.0860656,17.254902 L43.1434426,17.254902 C43.8156909,17.254902 44.3606557,17.7980859 44.3606557,18.4681373 L44.3606557,22.5122549 Z M44.3606557,11.7279412 C44.3606557,12.3979925 43.8156909,12.9411765 43.1434426,12.9411765 L39.0860656,12.9411765 C38.4138173,12.9411765 37.8688525,12.3979925 37.8688525,11.7279412 L37.8688525,7.68382353 C37.8688525,7.01377218 38.4138173,6.47058824 39.0860656,6.47058824 L43.1434426,6.47058824 C43.8156909,6.47058824 44.3606557,7.01377218 44.3606557,7.68382353 L44.3606557,11.7279412 Z"/>
    </g>
  </g>
</svg>
